X: 41812
T: Victory, The
R: reel
M: 4/4
K: Gmajor
GBdg edcB|Aaa^g aABA|1 GBdg egdB|cedc BGAF:|2 GBdg egdg|egdc BG G2||
g2 dg bgag|edga bgaf|g2 dg bgag|egag bgg2|
g2 dg bgag|edga bgaf|gbag fagf|e/f/g f/g/a gedB|

